X: 7008
T: Chicken, The
R: reel
M: 4/4
K: Dmajor
|:FA~A2 BAAG|FAAd B2AB|FA~A2 BAdB|1 AFdF EFDE:|2 AFdF EFDe||
|:fd~d2 BdAd|fded (3Bcd Ae|fd~d2 BcdB|1 AFdF EFDe:|2 AFDF EDFA||
|:B2Bc BA^GA|BABc (3BcB Ac|~B3c BA^GB|1 AFdF EDFA:|2 AFdF EFDe||
|:fa~a2 fdde|fded BdAg|fa~a2 fddB|1 AFdF EFDe:|2 AFdF EFDf||
|:g3e fafe|dfed (3Bcdef|geeg fddB|1 AFdF EFDf:|2 AFdF EDCB,||
|:A,DFB ADFB|ADFD EDCB,|A,DFB ADFB|1 AGFD EDCB,:|2 AFEF D2BA||

